actions/symbolic/start-here-symbolic.svg

<svg viewBox="0 0 16 16" xmlns="http://www.w3.org/2000/svg"><g fill="#bebebe"><path d="m8.0003719 3.2500002c-.1814469 0-.3488255.04445-.5020455.1338787-.1532354.0894129-.2750188.2112122-.3644477.3644479-.0894446.1532355-.1338787.3206145-.1338787.5020453 0 .1814469.044466.3487937.1338787.5020454.089429.1532038.2112123.2742753.3644477.3637041.153236.089429.3205986.1338787.5020455.1338787.1814471 0 .3488255-.04445.5020455-.1338787.1532196-.0894128.2742751-.2104843.3637036-.3637041.089413-.1532357.133879-.3206145.133879-.5020454 0-.1814468-.04448-.3488257-.133879-.5020453-.0894285-.1532198-.210484-.2750191-.3637036-.3644479-.1532515-.0894287-.3205824-.1338787-.5020455-.1338787z"/><path d="m4.2496282 3.2500003c-.1814468.0000012-.348082.0451782-.5013017.1345736-.1532356.0893795-.275019.2103899-.3644477.3635686-.0894448.1531786-.1338788.3204951-.1338788.5018584 0 .1813793.044466.3486639.1338788.5018584.089429.1531467.2104682.2741731.3637039.3635686.1532358.089395.3205987.1345724.5020455.1345724s.3488256-.045178.5020452-.1345724c.1532197-.0893795.2750191-.2104059.3644478-.3635686.0894128-.1531786.1338788-.3204951.1338788-.5018584 0-.1813793-.0444819-.3486958-.1338788-.5018584-.0894287-.1531627-.2112281-.2741731-.3644478-.3635686-.1532516-.0893954-.3205824-.1345724-.5020452-.1345724z"/><path d="m11.750372 3.2500003c-.181446 0-.348826.044454-.502046.1338787-.153236.0894127-.275019.2112127-.364448.364448-.089444.153236-.133878.3206147-.133878.5020453 0 .1814467.04446.3487934.133878.5020454.08943.1532033.211212.2742753.364448.363704.153236.089429.3206.1338786.502046.1338786s.348826-.044454.502046-.1338786c.153219-.089413.274275-.2104847.363704-.363704.089412-.153236.133878-.320614.133878-.5020454 0-.1814473-.04448-.348826-.133878-.5020453-.089429-.153218-.210485-.2750173-.363704-.3644467-.153252-.0894286-.320584-.1338786-.502046-.1338786z"/><path d="m4.2496281 10.75c-.1814468 0-.3488257.04446-.5020454.133879-.1532357.089412-.2742752.210468-.3637039.363704-.0894447.153235-.1338788.320615-.1338788.502044 0 .181447.044466.348794.1338788.502046.089429.153203.2104682.275018.3637039.364447.1532357.08943.3205986.13388.5020454.13388.1814469 0 .3488257-.04446.5020453-.133878.1532198-.08941.2750191-.211228.3644478-.364448.0894129-.153235.1338788-.320615.1338788-.502044 0-.181448-.044482-.348827-.1338788-.502046-.0894287-.15322-.211228-.274275-.3644478-.363704-.1532516-.089429-.3205824-.133878-.5020453-.133878z"/><path d="m8.0003719 10.75c-.1814469 0-.3488255.04445-.5020455.133879-.1532354.089412-.2750188.211212-.3644477.364448-.0894446.153235-.1338787.320614-.1338787.502045 0 .181447.044466.348794.1338787.502046.089429.153203.2112123.274275.3644477.363704.153236.089428.3205986.133878.5020455.133878.1814471 0 .3488255-.044448.5020455-.133878.1532196-.089413.2742751-.210485.3637036-.363704.089413-.153236.133879-.320615.133879-.502046 0-.181447-.04448-.348826-.133879-.502045-.0894285-.15322-.210484-.27502-.3637036-.364448-.1532515-.089429-.3205824-.133879-.5020455-.133879z"/><path d="m11.750372 10.75c-.181446 0-.348826.04446-.502046.133879-.153236.08941-.275019.211212-.364448.364448-.08944.153236-.133878.320615-.133878.502045 0 .181447.04446.348794.133878.502046.08943.153203.211212.274275.364448.363704.153236.08943.3206.133878.502046.133878s.348826-.04446.502046-.133878c.153219-.08941.274275-.210485.363704-.363704.08941-.153236.133878-.320615.133878-.502046 0-.181447-.04448-.348826-.133878-.502045-.08943-.153218-.210485-.275017-.363704-.364447-.153252-.08943-.320584-.133878-.502046-.133878z"/><path d="m4.249628 7.0000002c-.181446 0-.3488256.044454-.5020452.133878-.1532358.0894134-.2742752.210469-.363704.363705-.0894448.1532344-.1338788.3206144-.1338788.502044 0 .1814472.0444656.3487936.1338788.5020456.0894288.1532032.2104682.2750184.363704.3644472.1532356.0894296.3205984.13388.5020452.13388.181447 0 .3488258-.044456.5020454-.1338784.1532198-.0894128.275019-.211228.3644478-.3644472.0894128-.1532352.1338788-.3206152.1338788-.5020448 0-.1814472-.044482-.3488264-.1338788-.5020456-.0894288-.15322-.211228-.274275-.3644478-.3637038-.1532516-.0894286-.3205824-.1338786-.5020454-.1338786z"/><path d="m8.0003719 7.0000002c-.1814469 0-.3488255.044454-.5020455.1338788-.1532354.0894126-.2750188.2112122-.3644477.3644482-.0894446.1532352-.1338787.3206136-.1338787.5020448 0 .1814472.044466.3487936.1338787.5020456.089429.1532032.2112123.2742752.3644477.363704.153236.0894288.3205986.1338784.5020455.1338784.1814471 0 .3488255-.044448.5020455-.1338784.1532196-.0894128.2742751-.2104848.3637036-.363704.089413-.153236.133879-.3206144.133879-.5020456 0-.1814472-.04448-.3488256-.133879-.5020448-.0894285-.15322-.210484-.2750196-.3637036-.3644482-.1532515-.0894288-.3205824-.1338788-.5020455-.1338788z"/><path d="m11.750372 7.0000002c-.181446 0-.348826.044454-.502046.1338788-.153236.0894126-.275019.2112122-.364448.3644482-.089444.153236-.133878.3206144-.133878.5020448 0 .1814472.04446.3487936.133878.5020456.08943.1532032.211212.2742752.364448.363704.153236.089429.3206.1338784.502046.1338784s.348826-.044456.502046-.1338784c.153219-.089414.274275-.2104848.363704-.363704.089412-.153236.133878-.3206144.133878-.5020456 0-.1814472-.04448-.3488256-.133878-.5020448-.089429-.1532184-.210485-.2750176-.363704-.364447-.153252-.0894286-.320584-.1338786-.502046-.1338786z"/></g></svg>

<?xml version="1.0" encoding="UTF-8" standalone="no"?>
<svg
   xmlns:dc="http://purl.org/dc/elements/1.1/"
   xmlns:cc="http://creativecommons.org/ns#"
   xmlns:rdf="http://www.w3.org/1999/02/22-rdf-syntax-ns#"
   xmlns:svg="http://www.w3.org/2000/svg"
   xmlns="http://www.w3.org/2000/svg"
   xmlns:sodipodi="http://sodipodi.sourceforge.net/DTD/sodipodi-0.dtd"
   xmlns:inkscape="http://www.inkscape.org/namespaces/inkscape"
   viewBox="0 0 16 16"
   id="svg3663"
   version="1.1"
   inkscape:version="0.91 r13725"
   sodipodi:docname="start-here-symbolic.svg">
  <metadata
     id="metadata3671">
    <rdf:RDF>
      <cc:Work
         rdf:about="">
        <dc:format>image/svg+xml</dc:format>
        <dc:type
           rdf:resource="http://purl.org/dc/dcmitype/StillImage" />
      </cc:Work>
    </rdf:RDF>
  </metadata>
  <sodipodi:namedview
     pagecolor="#ffffff"
     bordercolor="#666666"
     borderopacity="1"
     objecttolerance="10"
     gridtolerance="10"
     guidetolerance="10"
     inkscape:pageopacity="0"
     inkscape:pageshadow="2"
     inkscape:window-width="640"
     inkscape:window-height="480"
     id="namedview3669"
     showgrid="false"
     inkscape:zoom="28.151689"
     inkscape:cx="2.7991139"
     inkscape:cy="5.6651886"
     inkscape:current-layer="svg3663" />
  <defs
     id="defs3051">
    <style
       type="text/css"
       id="current-color-scheme">
      .ColorScheme-Text {
        color:#bebebe;
      }
      </style>
  </defs>
  <path
     style="color:#bebebe;fill:currentColor;fill-opacity:1;stroke:none"
     d="m 8.0003719,3.2500002 c -0.1814469,0 -0.3488255,0.04445 -0.5020455,0.1338787 C 7.345091,3.4732918 7.2233076,3.5950911 7.1338787,3.7483268 7.0444341,3.9015623 7,4.0689413 7,4.2503721 7,4.431819 7.044466,4.5991658 7.1338787,4.7524175 c 0.089429,0.1532038 0.2112123,0.2742753 0.3644477,0.3637041 0.153236,0.089429 0.3205986,0.1338787 0.5020455,0.1338787 0.1814471,0 0.3488255,-0.04445 0.5020455,-0.1338787 C 8.655637,5.0267088 8.7766925,4.9056373 8.866121,4.7524175 8.955534,4.5991818 9,4.431803 9,4.2503721 9,4.0689253 8.95552,3.9015464 8.866121,3.7483268 8.7766925,3.595107 8.655637,3.4733077 8.5024174,3.3838789 8.3491659,3.2944502 8.181835,3.2500002 8.0003719,3.2500002 Z"
     id="path3199"
     inkscape:connector-curvature="0" />
  <path
     style="color:#bebebe;fill:currentColor;fill-opacity:1;stroke:none"
     d="M 4.2496282,3.2500003 C 4.0681814,3.2500015 3.9015462,3.2951785 3.7483265,3.3845739 3.5950909,3.4739534 3.4733075,3.5949638 3.3838788,3.7481425 3.294434,3.9013211 3.25,4.0686376 3.25,4.2500009 c 0,0.1813793 0.044466,0.3486639 0.1338788,0.5018584 0.089429,0.1531467 0.2104682,0.2741731 0.3637039,0.3635686 0.1532358,0.089395 0.3205987,0.1345724 0.5020455,0.1345724 0.1814468,0 0.3488256,-0.045178 0.5020452,-0.1345724 C 4.9048931,5.0260484 5.0266925,4.905022 5.1161212,4.7518593 5.205534,4.5986807 5.25,4.4313642 5.25,4.2500009 5.25,4.0686216 5.2055181,3.9013051 5.1161212,3.7481425 5.0266925,3.5949798 4.9048931,3.4739694 4.7516734,3.3845739 4.5984218,3.2951785 4.431091,3.2500015 4.2496282,3.2500015 Z"
     id="path3197"
     inkscape:connector-curvature="0" />
  <path
     style="color:#bebebe;fill:currentColor;fill-opacity:1;stroke:none"
     d="m 11.750372,3.2500003 c -0.181446,0 -0.348826,0.044454 -0.502046,0.1338787 C 11.09509,3.4732917 10.973307,3.5950917 10.883878,3.748327 10.794434,3.901563 10.75,4.0689417 10.75,4.2503723 c 0,0.1814467 0.04446,0.3487934 0.133878,0.5020454 0.08943,0.1532033 0.211212,0.2742753 0.364448,0.363704 0.153236,0.089429 0.3206,0.1338786 0.502046,0.1338786 0.181446,0 0.348826,-0.044454 0.502046,-0.1338786 0.153219,-0.089413 0.274275,-0.2104847 0.363704,-0.363704 C 12.705534,4.5991817 12.75,4.4318037 12.75,4.2503723 12.75,4.068925 12.70552,3.9015463 12.616122,3.748327 12.526693,3.595109 12.405637,3.4733097 12.252418,3.3838803 12.099166,3.2944517 11.931834,3.2500017 11.750372,3.2500017 Z"
     id="path3195"
     inkscape:connector-curvature="0" />
  <path
     style="color:#bebebe;fill:currentColor;fill-opacity:1;stroke:none"
     d="m 4.2496281,10.75 c -0.1814468,0 -0.3488257,0.04446 -0.5020454,0.133879 C 3.594347,10.973291 3.4733075,11.094347 3.3838788,11.247583 3.2944341,11.400818 3.25,11.568198 3.25,11.749627 c 0,0.181447 0.044466,0.348794 0.1338788,0.502046 0.089429,0.153203 0.2104682,0.275018 0.3637039,0.364447 0.1532357,0.08943 0.3205986,0.13388 0.5020454,0.13388 0.1814469,0 0.3488257,-0.04446 0.5020453,-0.133878 0.1532198,-0.08941 0.2750191,-0.211228 0.3644478,-0.364448 C 5.2055341,12.098439 5.25,11.931059 5.25,11.74963 5.25,11.568182 5.205518,11.400803 5.1161212,11.247584 5.0266925,11.094364 4.9048932,10.973309 4.7516734,10.88388 4.5984218,10.794451 4.431091,10.750002 4.2496281,10.750002 Z"
     id="path3667"
     inkscape:connector-curvature="0" />
  <path
     inkscape:connector-curvature="0"
     id="path3205"
     d="m 8.0003719,10.75 c -0.1814469,0 -0.3488255,0.04445 -0.5020455,0.133879 C 7.345091,10.973291 7.2233076,11.095091 7.1338787,11.248327 7.0444341,11.401562 7,11.568941 7,11.750372 c 0,0.181447 0.044466,0.348794 0.1338787,0.502046 0.089429,0.153203 0.2112123,0.274275 0.3644477,0.363704 C 7.6515624,12.70555 7.818925,12.75 8.0003719,12.75 8.181819,12.75 8.3491974,12.705552 8.5024174,12.616122 8.655637,12.526709 8.7766925,12.405637 8.866121,12.252418 8.955534,12.099182 9,11.931803 9,11.750372 9,11.568925 8.95552,11.401546 8.866121,11.248327 8.7766925,11.095107 8.655637,10.973307 8.5024174,10.883879 8.3491659,10.79445 8.181835,10.75 8.0003719,10.75 Z"
     style="color:#bebebe;fill:currentColor;fill-opacity:1;stroke:none" />
  <path
     inkscape:connector-curvature="0"
     id="path3207"
     d="m 11.750372,10.75 c -0.181446,0 -0.348826,0.04446 -0.502046,0.133879 -0.153236,0.08941 -0.275019,0.211212 -0.364448,0.364448 -0.08944,0.153236 -0.133878,0.320615 -0.133878,0.502045 0,0.181447 0.04446,0.348794 0.133878,0.502046 0.08943,0.153203 0.211212,0.274275 0.364448,0.363704 0.153236,0.08943 0.3206,0.133878 0.502046,0.133878 0.181446,0 0.348826,-0.04446 0.502046,-0.133878 0.153219,-0.08941 0.274275,-0.210485 0.363704,-0.363704 0.08941,-0.153236 0.133878,-0.320615 0.133878,-0.502046 0,-0.181447 -0.04448,-0.348826 -0.133878,-0.502045 -0.08943,-0.153218 -0.210485,-0.275017 -0.363704,-0.364447 -0.153252,-0.08943 -0.320584,-0.133878 -0.502046,-0.133878 z"
     style="color:#bebebe;fill:currentColor;fill-opacity:1;stroke:none" />
  <path
     inkscape:connector-curvature="0"
     id="path3209"
     d="m 4.249628,7.0000002 c -0.181446,0 -0.3488256,0.044454 -0.5020452,0.133878 C 3.594347,7.2232916 3.4733076,7.3443472 3.3838788,7.4975832 3.294434,7.6508176 3.25,7.8181976 3.25,7.9996272 3.25,8.1810744 3.2944656,8.3484208 3.3838788,8.5016728 3.4733076,8.654876 3.594347,8.7766912 3.7475828,8.86612 3.9008184,8.9555496 4.0681812,9 4.249628,9 4.431075,9 4.5984538,8.955544 4.7516734,8.8661216 4.9048932,8.7767088 5.0266924,8.6548936 5.1161212,8.5016744 5.205534,8.3484392 5.25,8.1810592 5.25,7.9996296 5.25,7.8181824 5.205518,7.6508032 5.1161212,7.497584 5.0266924,7.344364 4.9048932,7.223309 4.7516734,7.1338802 4.5984218,7.0444516 4.431091,7.0000016 4.249628,7.0000016 Z"
     style="color:#bebebe;fill:currentColor;fill-opacity:1;stroke:none" />
  <path
     style="color:#bebebe;fill:currentColor;fill-opacity:1;stroke:none"
     d="m 8.0003719,7.0000002 c -0.1814469,0 -0.3488255,0.044454 -0.5020455,0.1338788 C 7.345091,7.2232916 7.2233076,7.3450912 7.1338787,7.4983272 7.0444341,7.6515624 7,7.8189408 7,8.000372 7,8.1818192 7.044466,8.3491656 7.1338787,8.5024176 7.2233077,8.6556208 7.345091,8.7766928 7.4983264,8.8661216 7.6515624,8.9555504 7.818925,9 8.0003719,9 8.181819,9 8.3491974,8.955552 8.5024174,8.8661216 8.655637,8.7767088 8.7766925,8.6556368 8.866121,8.5024176 8.955534,8.3491816 9,8.1818032 9,8.000372 9,7.8189248 8.95552,7.6515464 8.866121,7.4983272 8.7766925,7.3451072 8.655637,7.2233076 8.5024174,7.133879 8.3491659,7.0444502 8.181835,7.0000002 8.0003719,7.0000002 Z"
     id="path3211"
     inkscape:connector-curvature="0" />
  <path
     style="color:#bebebe;fill:currentColor;fill-opacity:1;stroke:none"
     d="m 11.750372,7.0000002 c -0.181446,0 -0.348826,0.044454 -0.502046,0.1338788 C 11.09509,7.2232916 10.973307,7.3450912 10.883878,7.4983272 10.794434,7.6515632 10.75,7.8189416 10.75,8.000372 c 0,0.1814472 0.04446,0.3487936 0.133878,0.5020456 0.08943,0.1532032 0.211212,0.2742752 0.364448,0.363704 C 11.401562,8.9555506 11.568926,9 11.750372,9 11.931818,9 12.099198,8.955544 12.252418,8.8661216 12.405637,8.7767076 12.526693,8.6556368 12.616122,8.5024176 12.705534,8.3491816 12.75,8.1818032 12.75,8.000372 12.75,7.8189248 12.70552,7.6515464 12.616122,7.4983272 12.526693,7.3451088 12.405637,7.2233096 12.252418,7.1338802 12.099166,7.0444516 11.931834,7.0000016 11.750372,7.0000016 Z"
     id="path3213"
     inkscape:connector-curvature="0" />
</svg>
